X: 5010
T: Breton Ridee
R: waltz
M: 3/4
K: Aminor
|:A3c BG|A2 B/c/d ez|A3c BA|Gd B2 AG:|
|:a3g ed|c3d eg|a2 ag ed|1 cB dc Ad//e//f//g//|2 cB dc AE||

